icons/defibrillator_fill.svg

<svg width="48" height="48" viewBox="0 0 48 48" fill="none" xmlns="http://www.w3.org/2000/svg">
<path fill-rule="evenodd" clip-rule="evenodd" d="M39.8435 9.97199C42.1819 12.5473 42.5883 16.1635 41.3674 19.2688C39.2798 24.5787 34.5828 29.3892 30.1272 33.9525C27.948 36.1843 25.8266 38.357 24.0964 40.5C23.6971 40.1108 23.2842 39.7103 22.8605 39.2993C17.1712 33.7804 9.53589 26.3737 6.6807 19.2688C6.2266 18.1389 6.00942 16.929 6.04239 15.713C6.07536 14.4971 6.3578 13.3005 6.87247 12.1964C7.38715 11.0922 8.12326 10.1037 9.03591 9.29101C12.6689 6.04659 18.3562 6.5524 21.8132 9.98079L24.0964 12.2451L26.7408 9.62255C27.6081 8.76244 28.6431 8.0866 29.7825 7.63627C30.9219 7.18593 32.1418 6.97054 33.3679 7.00324C34.594 7.03593 35.8006 7.31604 36.9139 7.82645C38.0273 8.33687 39.0241 9.06689 39.8435 9.97199ZM18.9688 24.8016L26.9091 14.5359L25.3818 22.2861H29.9083C30.3238 22.2861 30.558 22.7634 30.3038 23.092L22.3635 33.3577L23.8909 25.6075H19.3643C18.9488 25.6075 18.7146 25.1302 18.9688 24.8016Z" fill="black"/>
</svg>

<svg
  xmlns="http://www.w3.org/2000/svg"
  width="24"
  height="24"
  viewBox="0 0 24 24"
  fill="none"
  stroke="currentColor"
  stroke-width="2"
  stroke-linecap="round"
  stroke-linejoin="round"
>
  <path
    fill-rule="evenodd"
    d="M39.844 9.972c2.338 2.575 2.744 6.192 1.523 9.297-2.087 5.31-6.784 10.12-11.24 14.684-2.179 2.231-4.3 4.404-6.03 6.547q-.6-.585-1.237-1.2C17.172 33.78 9.536 26.373 6.68 19.268a8.89 8.89 0 0 1 .192-7.073 9 9 0 0 1 2.164-2.905c3.633-3.244 9.32-2.739 12.777.69l2.283 2.264 2.645-2.622a9 9 0 0 1 3.041-1.987 9.1 9.1 0 0 1 7.132.19 9 9 0 0 1 2.93 2.146m-20.875 14.83 7.94-10.266-1.527 7.75h4.526a.5.5 0 0 1 .396.806l-7.94 10.266 1.527-7.75h-4.527a.5.5 0 0 1-.395-.806"
    clip-rule="evenodd"
  />
</svg>
